X:1
T:Title
%%score { ( 1 3 5 ) | ( 2 4 ) }
L:1/8
M:4/4
K:Ab
V:1 treble nm="Grand Piano"
V:3 treble 
V:5 treble 
V:2 bass 
V:4 bass 
V:1
 z4 z2[Q:1/4=100] [CE]2 | [CE]2 [Ec]2 [DB]2 AE | F2 A2 E2 E2 | F2 FG [A,FA]2 [=EB]2 | %4
[M:2/4] [Ec]4 | d4 |[M:4/4] c2 e2 c2 [EA][FB] | c2 B2 A2 F2 | E2 AB c2 B2 |[M:3/4] [CA]6 | %10
[M:1/4] EA |[M:4/4] [Ec]6 z2 | [CA]4 z4 | [B,EG][B,EG][B,EG][CEA] [DEB]2 [B,EG]2 | %14
[M:7/8] [A,EA]2 [EB]2 [Ec]3 |[M:1/4] E z |[M:4/4] [Ec]6 z2 | [CA]4 z4 | %18
 [B,EG][B,EG][B,EG][CEA] [DGB]2 [EGc]2 |[M:3/4] A2- [FA-]2 [EA]2 |] %20
V:2
 z4 z2 [A,,A,]2 | [A,,A,]2 [A,,A,]2 [A,,A,]2 [A,,A,]2 | [D,A,D]2 [F,A,D]2 [A,C]2 [C,A,]2 | %3
 z2 .D2 z4 |[M:2/4] [A,,A,]4 | [E,G,E]4 |[M:4/4] [A,E]2 [A,CE]2 [A,E]2 C,D, | %7
 [E,A,E]2 [=E,G,D]2 [F,A,C]2 [D,A,D]2 | z2 .C2 z4 |[M:3/4] [A,,A,]6 |[M:1/4] [A,,A,]2 | %11
[M:4/4] [A,,A,]2 A,,2 z F [A,,A,]2 | [A,,A,]2 z D A,,2 C,2 | E,E,E,E, E,2 E,D, | %14
[M:7/8] C,2 [E,G,]2 A,3 |[M:1/4] z A |[M:4/4] [A,,A,]2 A,,2 z F [A,,A,]2 | [A,,A,]2 z D A,,2 C,2 | %18
 E,E,E,E, E,2 E,2 |[M:3/4] z2 D2 C2 |] %20
V:3
 x8 | z4 z2 C2 | x8 | x8 |[M:2/4] x4 | x4 |[M:4/4] z4 z2 A,2 | x8 | x8 |[M:3/4] x6 |[M:1/4] C2 | %11
[M:4/4] z2 A,2 z d[DB][Ec] | z2 z F [A,CE]2 [A,EA]2 | x8 |[M:7/8] x7 |[M:1/4] [A,C]2 | %16
[M:4/4] z2 A,2 z d[DB][Ec] | z2 z F [A,CE]2 [A,EA]2 | x8 |[M:3/4] C2 z2 z2 |] %20
V:4
 x8 | x8 | x8 | [D,A,D]2 [D,A,]-[D,A,E] D,2 [D,A,]2 |[M:2/4] x4 | x4 |[M:4/4] x8 | x8 | %8
 [E,A,C]2 [F,A,]-[F,A,=D] [E,A,E]2 [E,G,_D]2 |[M:3/4] x6 |[M:1/4] x2 |[M:4/4] z4 A,,2 z2 | %12
 z2 A,,2 z4 | x8 |[M:7/8] x7 |[M:1/4] A,,2 |[M:4/4] z4 A,,2 z2 | z2 A,,2 z4 | x8 |[M:3/4] A,,6 |] %20
V:5
 x8 | x8 | x8 | x8 |[M:2/4] x4 | x4 |[M:4/4] x8 | x8 | x8 |[M:3/4] x6 |[M:1/4] x2 | %11
[M:4/4] z4 A,2 z2 | z2 A,2 z4 | x8 |[M:7/8] x7 |[M:1/4] x2 |[M:4/4] z4 A,2 z2 | z2 A,2 z4 | x8 | %19
[M:3/4] x6 |] %20

